!!!!SEGMENT: pl-kk--kk-i-386--002-007_anonim--missa-seconda-benedictus.krn
!!!cenid: 18xx:4514
!!!COM: Anonim
!!!COM-rismID: pe30004985
!!!CDT:
!!!CNT:
!!!OPR: Missa seconda
!!!OTL: Benedictus
!!!OMV: 007
!!!PDT:
!!!AGN: Sacred
!!!YEC: Copyright 2022 Narodowy Instytut Fryderyka Chopina (https://polishscores.org)
!!!YEM: License CC-BY-4.0 (https://creativecommons.org/licenses/by/4.0)
!!!SMS-siglum: PL-Kk
!!!SMS-shelfmark: Kk.I.386
!!!SMS-variant:
!!!SMS-altvar:
!!!SMS-shelfwork: 002-007 M
!!!NIFC-rismSourceID: 1001218240
!!!NIFC-rismChildID: 1001218243
!!!NIFC-islandoraID: pl-kk:16060
!!!URL-pdf-islandora: https://repozytorium.nifc.pl/islandora/object/pl-kk%3A16060/datastream/PDF/view
!!!URL-scan: https://polish.musicsources.pl/pl/lokalizacje/galeria/rekopisy/7134/3 @EN{Scan on Polish Music Sources Website} @PL{Skany w portalu Dziedzictwo Muzyki Polskiej w otwartym dostępie}
!!!IIIF:
!!!ONB-nifc: UWAGA: Części Missy Seconda: Rorate, Kyrie, Gloria, Graduale, Offertorium, Sanctus, Benedicuts, Agnus. Zakres skanów: S – 6-9, A – 15-19, T – 25-29, B – 35-39
!!!AIN: 1 alto 1 bass 1 soprn 1 tenor
!!!key:
**kern	**text	**kern	**text	**kern	**text	**kern	**text
*part4	*part4	*part3	*part3	*part2	*part2	*part1	*part1
*staff4	*staff4	*staff3	*staff3	*staff2	*staff2	*staff1	*staff1
*I"Basso.	*	*I"Tenore.	*	*I"Alto.	*	*I"Soprano.	*
*I'B	*	*I'T	*	*I'A	*	*I'S	*
*Ibass	*	*Itenor	*	*Ialto	*	*Isoprn	*
*ICvox	*	*ICvox	*	*ICvox	*	*ICvox	*
*clefF4	*	*clefC4	*	*clefC3	*	*clefC1	*
*k[f#c#]	*	*k[f#c#]	*	*k[f#c#]	*	*k[f#c#]	*
*D:	*	*D:	*	*D:	*	*D:	*
*M4/4	*	*M4/4	*	*M4/4	*	*M4/4	*
*met(c)	*	*met(c)	*	*met(c)	*	*met(c)	*
!	!	!	!	!	!	!LO:TX:t=P:problem:all\right:global	!
!LO:TX:a:t=in D#.	!	!	!	!	!	!LO:TX:a:t=in D.#	!
8.D\	Be-	8.D/	Be-	8.d\	Be-	8d/	Be-
.	.	.	.	.	.	8f#/	-ne-
16F#\	-ne-	16F#/	-ne-	16f#\	-ne-	.	.
=1	=1	=1	=1	=1	=1	=1	=1
*2\right	*	*2\right	*	*2\right	*	*2\right	*
2A\	-dic-	2A\	-dic-	2a\	-dic-	2a\	-dic-
4A\	-tus	4A\	-tus	4a\	-tus	4a\	-tus
8G\L	qui	4G/	qui	8.b\L	qui	8.b\L	qui
8E\J	.	.	.	.	.	.	.
.	.	.	.	16cc#\Jk	.	16cc#\Jk	.
=2	=2	=2	=2	=2	=2	=2	=2
2D\	ve-	2F#/	ve-	2dd\	ve-	2dd\	ve-
4D\	-nit	4A\	-nit	4a\	-nit	4a\	-nit
4D\	in	4A\	in	8.a\L	in	8.ff#\L	in
.	.	.	.	16g\Jk	.	16ee\Jk	.
=3	=3	=3	=3	=3	=3	=3	=3
4E\	no-	4A\	no-	4f#\	no-	4dd\	no-
8E\	-mi-	8A\	-mi-	8a\	-mi-	8cc#\	-mi-
8E\	-ne	8A\	-ne	8a\	-ne	8cc#\	-ne
!LO:LB:g=original	!	!LO:LB:g=original	!	!	!	!LO:LB:g=original	!
4E\	Do-	4G/	Do-	4b\	Do-	4dd\	Do-
4E\	-mi-	4B/	-mi-	4g\	-mi-	4b\	-mi-
!	!	!	!	!LO:LB:g=original	!	!	!
=4	=4	=4	=4	=4	=4	=4	=4
2AA/	-ni,	2A\	-ni	2f#\	-ni,	2a\	-ni
4r	.	4r	.	4r	.	4r	.
4A\	in	4A\	in	4a\	in	4a\	in
=5	=5	=5	=5	=5	=5	=5	=5
4G\	no-	4c#\	no-	2a\	no-	4cc#\	no-
4F#\	.	4d\	.	.	.	4dd\	.
4E\	-mi-	4c#\	-mi-	4a\	-mi-	4ee\	-mi-
4D\	-ne	4d\	-ne	4a\	-ne	4ff#\	-ne
=6	=6	=6	=6	=6	=6	=6	=6
2AA/	Do-	2e\	Do-	4.a\	Do-	2gg\	Do-
.	.	.	.	8a\	-mi-	.	.
4C#/	-mi-	4c#\	-mi-	4a\	-ni	4ee\	-mi-
8C#/	-ne	8A\	-ni,	4A/	in	8a\	-ni,
8C#/	in	8A\	in	.	.	8a\	in
=7	=7	=7	=7	=7	=7	=7	=7
4D/	no-	4f#\	no-	4f#\	no-	4ff#\	no-
8D/	-mi-	8f#\	-mi-	8f#\	-mi-	8dd\	-mi-
8D/	-ne	8d\	-ne	8d\	-ne	8dd\	-ne
4G\	Do-	4B\	Do-	4g\	Do-	4b\	Do-
4A\	-mi-	4A#X\	-mi-	4g\	-mi-	4cc#\	-mi-
=8	=8	=8	=8	=8	=8	=8	=8
4D\	-ni,	4An\	-ni,	4f#\	-ni,	4dd\	-ni,
4r	.	4r	.	4r	.	4r	.
!LO:LB:g=original	!	!LO:LB:g=original	!	!	!	!LO:LB:g=original	!
4r	.	4r	.	4r	.	4r	.
8D/	Be-	8d\	Be-	8.b\	Be-	8.dd\	Be-
8D/	-ne-	8c#\	-ne-	.	.	.	.
.	.	.	.	16a\	-ne-	16ff#\	-ne-
!	!	!	!	!LO:LB:g=original	!	!	!
=9	=9	=9	=9	=9	=9	=9	=9
2C#/	-dic-	(4B\	-dic-	4g#X\	-dic-	2ee\	-dic-
.	.	4G#X\)	.	4e\	.	.	.
4D/	-tus	4A\	-tus	4f#\	-tus	4ee\	-tus
4D/	qui	4B\	qui	4g#\	qui	4ee\	qui
=10	=10	=10	=10	=10	=10	=10	=10
2C#/	ve-	2c#\	ve-	2a\	ve-	4.ee\	ve-
.	.	.	.	.	.	8aa\	.
4F#\	-nit	4.d#X\	-nit	4.b\	-nit	4.aa\	-nit
4F#\	in	.	.	.	.	.	.
.	.	8B\	in	8a\	in	8dd#X\	in
=11	=11	=11	=11	=11	=11	=11	=11
4E\	no-	4c#\	no-	4a\	no-	4ee\	no-
8E\	-mi-	8.A\	-mi-	8a\	-mi-	8.cc#\	-mi-
8E\	-ne	.	.	8a\	-ne	.	.
.	.	16A\	-ne	.	.	16cc#\	-ne
4E\	Do-	8.c#\L	Do-	4e\	Do-	8.ee\L	Do-
.	.	16B\Jk	.	.	.	16dd\Jk	.
4E\	-mi-	8A\L	-mi-	4e\	-mi-	8.cc#\L	-mi-
.	.	8G#X\J	.	.	.	.	.
.	.	.	.	.	.	16b\Jk	.
=12	=12	=12	=12	=12	=12	=12	=12
2AA/	-ni,	2A\	-ni	2a\	-ni	2a\	-ni
!	!	!	!	!	!	!LO:LB:g=original	!
2r	.	4r	.	2r	.	4r	.
.	.	4A\	o-	.	.	4a\	o-
!LO:LB:g=original	!	!LO:LB:g=original	!	!	!	!	!
=13	=13	=13	=13	=13	=13	=13	=13
2C#/	O-	4A\	-san-	2r	.	8a\	-san-
.	.	.	.	.	.	8r	.
.	.	4A\	-na	.	.	8a\	-na
.	.	.	.	.	.	8r	.
4AA/	-san-	4A\	in	4r	.	8a\	in
.	.	.	.	.	.	8r	.
4AA/	-na	4A\	ex-	8.g\L	in	8.ee\L	ex-
.	.	.	.	16f#\Jk	ex-	16dd\Jk	.
!	!	!	!	!LO:LB:g=original	!	!	!
=14	=14	=14	=14	=14	=14	=14	=14
4AA/	in	2A\	-cel-	4e\	-cel-	4cc#\	-cel-
4A\	ex-	.	.	4g\	.	4a\	.
4A\	-cel-	4A\	-sis,	4e\	-sis	4a\	-sis
4AA/	-sis	4r	.	8.a\L	O-	8.ff#\L	O-
.	.	.	.	16g\Jk	.	16ee\Jk	.
=15	=15	=15	=15	=15	=15	=15	=15
1AA	O-	8r	.	2f#\	-san-	4dd\	-san-
.	.	8A\	o-	.	.	.	.
.	.	4A\	-san-	.	.	4dd\	-na
.	.	8A\	-na	4f#\	-nain	4a\	in
.	.	8ryy	.	.	.	.	.
.	.	8A\	o-	8.g\L	ex-	8.ee\L	ex-
.	.	8ryy	.	.	.	.	.
.	.	.	.	16f#\Jk	.	16dd\Jk	.
=16	=16	=16	=16	=16	=16	=16	=16
4AA/	-san-	1A	-san-	4e\	-cel-	4cc#\	-cel-
4AA/	-na	.	.	4g\	.	4a\	.
4A\	in	.	.	4e\	-sis	4a\	-sis
4A\	ex-	.	.	8.a\L	in	8.ff#\	in
.	.	.	.	16g\Jk	ex-	16ee\	ex-
!	!	!	!	!	!	!LO:LB:g=original	!
=17	=17	=17	=17	=17	=17	=17	=17
4D\	-cel-	2A\	-na	4f#\	-cel-	4dd\	-cel-
4D\	-sis	.	.	4f#\	-sis	4dd\	-sis,
4r	.	4r	.	4r	.	4r	.
4D\	qui	8F#/L	qui	8.d\L	qui	8.dd\L	qui
.	.	8A/J	.	.	.	.	.
.	.	.	.	16c#\Jk	.	16cc#\Jk	.
=18	=18	=18	=18	=18	=18	=18	=18
4BB/	an-	2G/	ve-	4B/	ve-	2b\	ve-
4BB/	-ne	.	.	4b\	.	.	.
!	!	!	!	!LO:LB:g=original	!	!	!
4B\	in	4G/	-nit	4b\	-nit	4b\	-nit
4A\	ex	4G/	in	4b\	in	4dd#X\	in
!LO:LB:g=original	!	!LO:LB:g=original	!	!	!	!	!
=19	=19	=19	=19	=19	=19	=19	=19
4.G\	no-	4.B\	no-	4b\	no-	4.ee\	no-
.	.	.	.	4b\	-mi-	.	.
8F#\	-mi-	8A\	-mi-	.	.	8ff#\	-mi-
4.E\	-ne	4G\	-ne	4b\	-ne	4.gg\	-ne
.	.	4G\	in	4b\	in	.	.
8G\	in	.	.	.	.	8b\	in
=20	=20	=20	=20	=20	=20	=20	=20
4A\	no-	4F#/	no-	4a\	no-	4a\	no-
8A\	-mi-	8.A\	-mi-	8.a\	-mi-	8.a\	-mi-
8A\	-ne	.	.	.	.	.	.
.	.	16A\	-ne	16a\	-ne	16a\	-ne
4C#/	Do-	8.G/L	no-	8b\L	Do-	8.b\L	Do-
.	.	.	.	8a\J	.	.	.
.	.	16A/Jk	.	.	.	16cc#\Jk	.
4C#/	-mi-	8.G/L	-mi-	4a\	-mi-	8.dd\L	-mi-
.	.	16A/Jk	-ni	.	.	16ee\Jk	.
=21	=21	=21	=21	=21	=21	=21	=21
2D\	-ni,	4d\	Do-	2a\	-ni,	2ff#\	-ni
.	.	8.A/L	.	.	.	.	.
.	.	16F#/Jk	-mi-	.	.	.	.
4r	.	4d\	-ni	4r	.	4r	.
4D\	O-	4d\	o-	4a\	O-	4ff#\	O-
!	!	!	!	!	!	!LO:LB:g=original	!
=22	=22	=22	=22	=22	=22	=22	=22
4D\	-san-	4d\	-san-	4b\	-san-	4gg\	-san-
4D\	-na	4d\	-na	4a\	-na	4ff#\	-na
4F#\	in	4d\	in	4g\	in	4ee\	in
4D\	ex-	4d\	ex-	4f#\	ex-	4dd\	ex-
!	!	!LO:LB:g=original	!	!LO:LB:g=original	!	!	!
=23	=23	=23	=23	=23	=23	=23	=23
2C#/	-cel-	2e\	-cel-	2a\	-cel-	4.aa\	-cel-
.	.	.	.	.	.	8gg\	.
4D\	-sis	4d\	-sis	4a\	-sis	4ff#\	-sis
4D\	o-	4d\	o-	4a\	O-	4ff#\	O-
!LO:LB:g=original	!	!	!	!	!	!	!
=24	=24	=24	=24	=24	=24	=24	=24
4F#\	-san-	4.c#\	-san-	4a#X\	-san-	4.ff#\	-san-
4F#\	-na	.	.	4a#\	-na	.	.
.	.	8c#\	-na	.	.	8ee\	-na
4G\	in	4.A\	in	4.b\	in	4.dd\	in
4G\	ex-	.	.	.	.	.	.
.	.	8e\	ex-	8b\	ex-	8b\	ex-
=25	=25	=25	=25	=25	=25	=25	=25
4A\	-cel-	4.A\ 4.d	-cel-	4.an\	-cel-	4.a\	-cel-
8F#\L	-sis	.	.	.	.	.	.
8D\J	.	8A\	-sis	8f#\	-sis	8dd\	-sis
4A\	in	4c#/	in	4a\	in	4ff#\	in
4AA/	ex-	4A/	ex-	4g\	ex-	4ee\	ex-
=26	=26	=26	=26	=26	=26	=26	=26
4D\	-cel-	4A/	-cel-	4f#\	-cel-	4dd\	-cel-
4D\	-sis.	4A/	-sis.	4f#\	-sis.	4dd\	-sis.
4r	.	4r	.	4r	.	4r	.
!	!	!	!	!LO:TX:b:t=SequeAgnus.	!	!	!
==	==	==	==	==	==	==	==
*-	*-	*-	*-	*-	*-	*-	*-
!!!system-decoration: [(s1,s2,s3,s4)]
!!!ENC: Andrzej Gręziak
!!!END: 2023-11-02
!!!ENC: Leszek Kubiak
!!!END: 2024-06-27
